static/assets/images/exchanges/meteora.svg

<svg width="256" height="256" viewBox="0 0 256 256" fill="none" xmlns="http://www.w3.org/2000/svg">
<path fill-rule="evenodd" clip-rule="evenodd" d="M152.586 0.0601118L152.637 0C137.965 0.274798 123.799 4.24219 111.611 11.9881C102.452 21.7258 93.5382 31.6933 84.8794 41.8809C75.4258 52.9773 66.3669 64.4058 57.7197 76.1448C54.4617 80.5745 51.3341 85.0991 48.341 89.7129C52.9918 86.7073 57.4627 83.53 61.8737 80.3097C67.0706 76.4608 72.2046 72.5272 77.2737 68.5106C102.027 48.9398 125.204 27.5141 147.473 5.28127C149.186 3.54661 150.881 1.80336 152.594 0.051525L152.586 0.0601118ZM141.623 58.2829C158.183 41.5742 174.434 24.5595 190.366 7.2478C183.844 4.57337 177.052 2.61266 170.11 1.39975C155.431 15.1545 140.96 29.1307 126.702 43.3236C110.229 59.9045 94.0695 76.7961 78.2329 93.9895C55.3301 118.953 33.3522 144.784 13.1559 172.127C37.7889 153.818 61.2057 134.084 83.843 113.492C103.577 95.5781 122.737 77.0465 141.623 58.2743V58.2829ZM218.699 24.5343C195.402 50.3997 171.249 75.4578 146.796 100.198C132.15 114.81 117.337 129.252 102.361 143.522C69.608 174.643 35.8361 204.716 0 232.427C28.2646 195.673 58.9959 161.092 90.8064 127.549C104.339 113.285 118.06 99.2106 131.884 85.2389C155.943 61.34 180.319 37.7074 205.424 14.8906C210.014 17.7073 214.46 20.9104 218.699 24.5343ZM240.626 49.8672C237.727 45.2228 234.474 40.81 230.896 36.6683C205.089 60.0348 180.071 84.2857 155.378 108.811C140.818 123.522 126.36 138.352 112.125 153.406C81.0851 186.236 51.1246 220.087 23.4939 256C60.0922 227.704 94.5322 196.961 127.936 165.119C142.199 151.483 156.32 137.7 170.298 123.771C194.195 99.5885 217.817 75.0971 240.617 49.8586L240.626 49.8672ZM248.343 64.8609C251.109 71.4217 253.122 78.1714 254.39 84.9211C240.51 99.8145 226.405 114.495 212.079 128.957C195.375 145.64 178.356 162.002 161.031 178.035C136.295 200.834 110.694 222.689 83.6118 242.81C101.787 218.215 121.384 194.84 141.828 172.23C159.772 152.341 178.349 133.037 197.158 114.007C213.913 97.3065 230.977 80.9216 248.343 64.8609ZM245.893 141.615C252.608 129.722 255.957 116.179 256 102.199L250.004 108.099C227.581 130.684 205.98 154.187 186.281 179.306C182.512 184.115 178.812 188.984 175.18 193.913C171.922 198.342 168.794 202.867 165.802 207.481C170.403 204.483 174.916 201.35 179.334 198.086C190.1 190.113 200.603 181.79 210.828 173.131C222.822 162.973 234.515 152.463 245.893 141.615Z" fill="url(#paint0_linear_10243_956)"/>
<defs>
<linearGradient id="paint0_linear_10243_956" x1="206.211" y1="570.833" x2="514.691" y2="204.23" gradientUnits="userSpaceOnUse">
<stop stop-color="#FF2189"/>
<stop offset="1" stop-color="#FF9D00"/>
</linearGradient>
</defs>
</svg>

<svg xmlns="http://www.w3.org/2000/svg" fill="none" viewBox="0 0 256 256"><path fill="url(#paint0_linear_10243_956)" fill-rule="evenodd" d="m152.586.06.051-.06c-14.672.275-28.838 4.242-41.026 11.988a797 797 0 0 0-26.732 29.893 618 618 0 0 0-27.16 34.264 281 281 0 0 0-9.378 13.568c4.65-3.006 9.122-6.183 13.533-9.403a595 595 0 0 0 15.4-11.8c24.753-19.57 47.93-40.996 70.199-63.229 1.713-1.734 3.408-3.478 5.121-5.23zm-10.963 58.223a1907 1907 0 0 0 48.743-51.035A97.7 97.7 0 0 0 170.11 1.4a1998 1998 0 0 0-43.408 41.924 1856 1856 0 0 0-48.47 50.666c-22.902 24.963-44.88 50.794-65.076 78.137 24.633-18.309 48.05-38.043 70.687-58.635 19.734-17.914 38.894-36.446 57.78-55.218zm77.076-33.749c-23.297 25.866-47.45 50.924-71.903 75.664a2702 2702 0 0 1-44.435 43.324C69.608 174.643 35.836 204.716 0 232.427c28.265-36.754 58.996-71.335 90.806-104.878 13.533-14.264 27.254-28.338 41.078-42.31 24.059-23.899 48.435-47.532 73.54-70.348 4.59 2.816 9.036 6.02 13.275 9.643m21.927 25.333a106 106 0 0 0-9.73-13.199c-25.807 23.367-50.825 47.618-75.518 72.143-14.56 14.711-29.018 29.541-43.253 44.595-31.04 32.83-61 66.681-88.631 102.594 36.598-28.296 71.038-59.039 104.442-90.881a2858 2858 0 0 0 42.362-41.348c23.897-24.183 47.519-48.674 70.319-73.912zm7.717 14.994a98.6 98.6 0 0 1 6.047 20.06 2004 2004 0 0 1-42.311 44.036 1860 1860 0 0 1-51.048 49.078c-24.736 22.799-50.337 44.654-77.42 64.775 18.176-24.595 37.773-47.97 58.217-70.58 17.944-19.889 36.521-39.193 55.33-58.223a1897 1897 0 0 1 51.185-49.146m-2.45 76.754c6.715-11.893 10.064-25.436 10.107-39.416l-5.996 5.9c-22.423 22.585-44.024 46.088-63.723 71.207a618 618 0 0 0-11.101 14.607 280 280 0 0 0-9.378 13.568 280 280 0 0 0 13.532-9.395 616 616 0 0 0 31.494-24.955 801 801 0 0 0 35.065-31.516" clip-rule="evenodd"/><defs><linearGradient id="paint0_linear_10243_956" x1="206.211" x2="514.691" y1="570.833" y2="204.23" gradientUnits="userSpaceOnUse"><stop stop-color="#FF2189"/><stop offset="1" stop-color="#FF9D00"/></linearGradient></defs></svg>
